X:1
T:BUNNIES ALL FURRY
M:3/8
Q:1/4=120
K:G
d6|g2g2b2|a2a2c'2|f2f2a2|g4d2|g2g2b2|a2a2c'2|
f2f2a2|g4b2|a2d2b2|a2d2b2|a2c'2b2|a4d2|g2g2b2|
d'2d'2b2|a2agab|g4d2|g2g2b2|d'2d'2b2|a2agab|
g6|-g2||

